X: 3
T:Morrison's Jig
M:6/8
L:1/8
R:Jig
K:G
"Em"E2 E BEB|EBE "D"AFD |"Em"E2 E B2 ^c |"G"d^cB "D" AFD|!
"Em"E2 E BEB |EBE "D"AFD |"G"G2 G FGA |"D"dAE FED :|!
"Em"Bee fee| aee "D"fed |"Em"Bee fee | "D"fag fed|!
"Em"Bee fee| aee "D" f2 f |"G"gfe d2 A|"D"BAG FED|!
"Em"Bee fee| aee "D" fed |"Em"Bee fee |"D"faf def|!
"G"g2 g gfe |"D"def "G"g2 d |"D"ed^c d2 A |BAG FED|]
